X: 3
T: Kyrie-Gloria-Credo Sine nomine / Credo
N: Derived from Ock1001c-Kyrie_Gloria_Credo_Sine_nomine-Credo.krn
C: Johannes Ockeghem
%%abc-version 2.0
%%abcx-abcm2ps-target-version 5.9.1 (29 Sep 2008)
%%abc-creator hum2abc beta
%%abcx-conversion-date 2019/02/17 07:26:13
%%abc-edited-by Jesse Rodin
%%abc-edited-by Jesse Rodin 8-17-2012
%%abcx-initial-encoding-date 2012/08/17/
%%humdrum-veritas 2173152811
%%humdrum-veritas-data 1617596085
%%linebreak <none>
%%barnumbers 0
L: 1/4
M: 2/1
Q: 1/2=120
V: 1 clef=treble
V: 2 clef=treble-8
V: 3 clef=treble-8
V: 4 clef=bass
V: 5 clef=bass
K: C
[V:1] z8 | 
[V:2] G8 | 
[V:3] G8 | 
[V:4] G,8 | 
[V:5] z8 | 
[V:1] z8 | 
[V:2] B6c2 | 
[V:3] G4G4 | 
[V:4] E,6C,2 | 
[V:5] z8 | 
[V:1] z8 | 
[V:2] d4e4- | 
[V:3] G4G4 | 
[V:4] B,,4C,4- | 
[V:5] z8 | 
[V:1] z8 | 
[V:2] e4d2c2 | 
[V:3] A4A4 | 
[V:4] C,4D,4 | 
[V:5] z8 | 
[V:1] G6E2 | 
[V:2] B8- | 
[V:3] G4G2G2 | 
[V:4] E,6D,C, | 
[V:5] z8 | 
[V:1] D4C4 | 
[V:2] B4c4 | 
[V:3] G2G2A4 | 
[V:4] B,,4A,,4 | 
[V:5] z8 | 
[V:1] D4E4 | 
[V:2] B2A2G4 | 
[V:3] G2F2E4 | 
[V:4] z4C,4 | 
[V:5] z8 | 
[V:1] F4E4 | 
[V:2] z4c4 | 
[V:3] A4A2A2 | 
[V:4] D,4C,4 | 
[V:5] z8 | 
[V:1] F8 | 
[V:2] d8 | 
[V:3] A2A4A2 | 
[V:4] F,8 | 
[V:5] z8 | 
[V:1] E8 | 
[V:2] c8 | 
[V:3] G4G2G2 | 
[V:4] C,8 | 
[V:5] z8 | 
[V:1] D8 | 
[V:2] B8 | 
[V:3] G2G2G2G2 | 
[V:4] z4D,4- | 
[V:5] G,,8 | 
[V:1] z4D4 | 
[V:2] G6A2 | 
[V:3] G4G2G2 | 
[V:4] D,4G,,4 | 
[V:5] _B,,8- | 
[V:1] G4F4 | 
[V:2] B4c4- | 
[V:3] G4A4 | 
[V:4] D,4C,4 | 
[V:5] B,,4A,,4 | 
[V:1] A6G2 | 
[V:2] c8- | 
[V:3] A2A2A2A2 | 
[V:4] F,6E,2 | 
[V:5] F,,6G,,2 | 
[V:1] F4F4 | 
[V:2] c4d4 | 
[V:3] A2A2A2A2- | 
[V:4] F,4D,4 | 
[V:5] A,,4B,,4 | 
[V:1] E8 | 
[V:2] e4c4- | 
[V:3] A2G2G4 | 
[V:4] C,4E,4- | 
[V:5] C,8- | 
[V:1] C4D4 | 
[V:2] c4B4 | 
[V:3] G2G2G4 | 
[V:4] E,4D,4 | 
[V:5] C,4G,,4 | 
[V:1] E8 | 
[V:2] c8 | 
[V:3] E4G4 | 
[V:4] z4C,4- | 
[V:5] C,8 | 
[V:1] F6D2 | 
[V:2] c8- | 
[V:3] A4A2A2 | 
[V:4] C,4F,4- | 
[V:5] F,,8 | 
[V:1] C4E4- | 
[V:2] c8- | 
[V:3] A2A2A2A2- | 
[V:4] F,2E,2C,4 | 
[V:5] A,,6B,,2 | 
[V:1] E4C4 | 
[V:2] c8 | 
[V:3] A2G2G4 | 
[V:4] E,8 | 
[V:5] C,8 | 
[V:1] B,8 | 
[V:2] d8 | 
[V:3] G2G2G2G2 | 
[V:4] D,8 | 
[V:5] G,,8 | 
[V:1] C4D4 | 
[V:2] z8 | 
[V:3] G2G2G2G2 | 
[V:4] E,4D,4 | 
[V:5] C,4B,,4 | 
[V:1] E4D4 | 
[V:2] z8 | 
[V:3] G2G2G4 | 
[V:4] B,,6C,2 | 
[V:5] G,,8- | 
[V:1] G6F2 | 
[V:2] d4_B4- | 
[V:3] G2G2G4 | 
[V:4] D,4z2D,2- | 
[V:5] G,,8 | 
[V:1] D8 | 
[V:2] B2G2F2A2- | 
[V:3] G4A4 | 
[V:4] D,2E,2F,2D,2- | 
[V:5] G,,4D,4 | 
[V:1] z8 | 
[V:2] A2G4F2 | 
[V:3] F2G2A4 | 
[V:4] D,2E,2D,4 | 
[V:5] z8 | 
[V:1] D4E4 | 
[V:2] _B4c4 | 
[V:3] G4G2G2 | 
[V:4] G,4G,4 | 
[V:5] z4C,4 | 
[V:1] D2G4F2 | 
[V:2] d6=B2 | 
[V:3] G2G2G2G2 | 
[V:4] z8 | 
[V:5] B,,4G,,4 | 
[V:1] E2D2D4- | 
[V:2] c4B4 | 
[V:3] G2G2G2G2 | 
[V:4] z8 | 
[V:5] C,4D,4 | 
[V:1] D4^C4 | 
[V:2] G8 | 
[V:3] G2G2G4 | 
[V:4] C,8 | 
[V:5] E,8 | 
[V:1] D8 | 
[V:2] z8 | 
[V:3] A4A2A2 | 
[V:4] F,8 | 
[V:5] D,8 | 
[V:1] z8 | 
[V:2] z8 | 
[V:3] A2A2A2A2- | 
[V:4] E,4F,4- | 
[V:5] C,4D,4- | 
[V:1] D8 | 
[V:2] A4B4 | 
[V:3] A2F2G4 | 
[V:4] F,4D,4 | 
[V:5] D,4B,,4 | 
[V:1] E4C4 | 
[V:2] G6A2 | 
[V:3] G2G2G2G2 | 
[V:4] C,4E,4 | 
[V:5] C,8 | 
[V:1] D4G4- | 
[V:2] B8- | 
[V:3] G2G2G2G2 | 
[V:4] D,8 | 
[V:5] B,,4G,,4- | 
[V:1] G4E4 | 
[V:2] B4c4 | 
[V:3] G2G2G4 | 
[V:4] z8 | 
[V:5] G,,4C,4 | 
[V:1] D8 | 
[V:2] d8 | 
[V:3] G2G2G4 | 
[V:4] D,8 | 
[V:5] B,,8 | 
[V:1] C4D4 | 
[V:2] z8 | 
[V:3] A4A2A2 | 
[V:4] E,4F,4 | 
[V:5] A,,4D,4 | 
[V:1] z8 | 
[V:2] z8 | 
[V:3] A2A4G2- | 
[V:4] E,2F,2D,2D,2- | 
[V:5] C,2F,,4G,,2 | 
[V:1] z8 | 
[V:2] z8 | 
[V:3] G2^F2G2G2 | 
[V:4] D,2C,2D,4 | 
[V:5] A,,4G,,4 | 
[V:1] z8 | 
[V:2] c8 | 
[V:3] G2G2G2G2 | 
[V:4] E,8 | 
[V:5] C,6B,,2 | 
[V:1] G6FE | 
[V:2] B8- | 
[V:3] G2G2G4 | 
[V:4] D,8 | 
[V:5] G,,8- | 
[V:1] D4E4 | 
[V:2] B8 | 
[V:3] G2G2G4 | 
[V:4] z8 | 
[V:5] G,,8 | 
[V:1] F8 | 
[V:2] A8 | 
[V:3] A4A2A2 | 
[V:4] z8 | 
[V:5] z4D,4 | 
[V:1] E8 | 
[V:2] c4c4 | 
[V:3] A2A2A2A2 | 
[V:4] z8 | 
[V:5] C,4A,,4 | 
[V:1] z8 | 
[V:2] d2e2c2d2- | 
[V:3] G2G2A2_B2- | 
[V:4] z8 | 
[V:5] B,,2C,4G,,2 | 
[V:1] E4F4 | 
[V:2] d2c4B2 | 
[V:3] B2G4F2 | 
[V:4] z8 | 
[V:5] C,2E,2D,4 | 
[V:1] E4D4 | 
[V:2] c4B4 | 
[V:3] G4G2G2 | 
[V:4] C,4D,4 | 
[V:5] C,4G,,4 | 
[V:1] C4D4 | 
[V:2] c4G4 | 
[V:3] G2G2G2G2 | 
[V:4] E,4D,4 | 
[V:5] C,4B,,4 | 
[V:1] E4G4 | 
[V:2] c8 | 
[V:3] G2G2G4 | 
[V:4] C,8 | 
[V:5] C,4E,4 | 
[V:1] F6G2 | 
[V:2] d8 | 
[V:3] A4A2A2 | 
[V:4] z4F,4- | 
[V:5] D,8- | 
[V:1] A6B2 | 
[V:2] z8 | 
[V:3] A2A4A2 | 
[V:4] F,4E,4 | 
[V:5] D,4C,4 | 
[V:1] c4B4 | 
[V:2] z8 | 
[V:3] A4G4 | 
[V:4] C,4D,4 | 
[V:5] A,,4B,,4 | 
[V:1] G8 | 
[V:2] z8 | 
[V:3] G4G2G2- | 
[V:4] E,8 | 
[V:5] C,8 | 
[V:1] z8 | 
[V:2] z8 | 
[V:3] G2F2G2A2- | 
[V:4] D,6E,2- | 
[V:5] B,,4G,,2C,2- | 
[V:1] z8 | 
[V:2] z8 | 
[V:3] A2G4^F2 | 
[V:4] E,D,D,4C,2 | 
[V:5] C,B,,G,,2A,,4 | 
[V:1] G6F2 | 
[V:2] B6c2 | 
[V:3] G4G4 | 
[V:4] D,8 | 
[V:5] G,,8 | 
[V:1] D4C4 | 
[V:2] d4e4- | 
[V:3] G2G2G2G2 | 
[V:4] z8 | 
[V:5] B,,4C,4- | 
[V:1] E8 | 
[V:2] e4c4- | 
[V:3] G2G2G2G2 | 
[V:4] C,8 | 
[V:5] C,2B,,2A,,2G,,2 | 
[V:1] F4D4 | 
[V:2] c4A4 | 
[V:3] A4A2A2 | 
[V:4] F,8 | 
[V:5] F,,4F,4 | 
[V:1] E4F4 | 
[V:2] c4d4 | 
[V:3] A2A2A4 | 
[V:4] E,4D,4 | 
[V:5] C,4F,4 | 
[V:1] G6E2 | 
[V:2] e8 | 
[V:3] G2G2G2G2 | 
[V:4] z4C,4 | 
[V:5] E,6C,2 | 
[V:1] D4G4- | 
[V:2] z4c4- | 
[V:3] G2G2G2G2 | 
[V:4] D,4E,4 | 
[V:5] B,,4C,4 | 
[V:1] G2E2F4 | 
[V:2] c4d4 | 
[V:3] G2G2A2A2 | 
[V:4] C,4F,4- | 
[V:5] E,4D,4 | 
[V:1] A6GF | 
[V:2] d8 | 
[V:3] A2A2A4 | 
[V:4] F,4D,4 | 
[V:5] F,4F,4 | 
[V:1] E8- | 
[V:2] c8- | 
[V:3] G8- | 
[V:4] E,6F,2 | 
[V:5] C,8- | 
[V:1] E8 ||  
[V:2] c8 ||  
[V:3] G8 ||  
[V:4] G,8 ||  
[V:5] C,8 ||  
[V:1]  [K:C] [K:clef=treble][M:2/1]z8 | 
[V:2]  [K:C] [K:clef=treble-8][M:2/1]B6G2 | 
[V:3]  [K:C] [K:clef=treble-8][M:2/1]G4G2G2 | 
[V:4]  [K:C] [K:clef=bass][M:2/1]G,8 | 
[V:5]  [K:C] [K:clef=bass][M:2/1]z8 | 
[V:1] z8 | 
[V:2] B4B4 | 
[V:3] G2G2G2G2 | 
[V:4] E,8 | 
[V:5] z8 | 
[V:1] z8 | 
[V:2] c4B4 | 
[V:3] G2G2G2G2 | 
[V:4] C,4E,4 | 
[V:5] z8 | 
[V:1] z8 | 
[V:2] e6d2 | 
[V:3] G4G2G2 | 
[V:4] C,4G,4- | 
[V:5] z8 | 
[V:1] z8 | 
[V:2] B4A2c2- | 
[V:3] G4A2A2 | 
[V:4] G,2E,2F,4 | 
[V:5] z8 | 
[V:1] z8 | 
[V:2] cBAG^F3E | 
[V:3] A2A2A2A2 | 
[V:4] D,2C,2D,4- | 
[V:5] z8 | 
[V:1] G4E4- | 
[V:2] G8 | 
[V:3] G4G2G2 | 
[V:4] D,4E,4 | 
[V:5] G,,4C,4- | 
[V:1] E2D4B,2 | 
[V:2] z4B4 | 
[V:3] G2G2G2G2 | 
[V:4] C,2D,4E,2 | 
[V:5] C,2B,,2G,,4 | 
[V:1] A,4z4 | 
[V:2] c4B4 | 
[V:3] A2A2G4 | 
[V:4] F,4D,4 | 
[V:5] F,,4G,,4 | 
[V:1] G8 | 
[V:2] B4e4 | 
[V:3] G2G2G2G2 | 
[V:4] E,4C,4 | 
[V:5] z8 | 
[V:1] G8 | 
[V:2] d2e4dc | 
[V:3] G4G2G2 | 
[V:4] z2C,4D,2 | 
[V:5] z8 | 
[V:1] G4F4 | 
[V:2] B2c2d4 | 
[V:3] G2G2A4 | 
[V:4] E,4D,4 | 
[V:5] z8 | 
[V:1] E2F4E2 | 
[V:2] z8 | 
[V:3] A2A2A2A2 | 
[V:4] C,2D,4C,2 | 
[V:5] z8 | 
[V:1] C2D2E4 | 
[V:2] z8 | 
[V:3] A4G4 | 
[V:4] A,,3B,,C,4 | 
[V:5] z8 | 
[V:1] C4z4 | 
[V:2] e4d2e2- | 
[V:3] G2G2G2G2 | 
[V:4] E,3F,G,4 | 
[V:5] C,4B,,2C,2- | 
[V:1] E4D2G2- | 
[V:2] e2dcd4 | 
[V:3] G2G2G2G2 | 
[V:4] C,4z4 | 
[V:5] C,2B,,A,,B,,4 | 
[V:1] G2E2F4 | 
[V:2] c4A4 | 
[V:3] A4A4 | 
[V:4] C,6D,2 | 
[V:5] C,4F,,4 | 
[V:1] G8 | 
[V:2] B4c4 | 
[V:3] G2G2G2G2 | 
[V:4] E,8 | 
[V:5] z4C,4 | 
[V:1] z4G4- | 
[V:2] d4e4 | 
[V:3] G2G2G2G2 | 
[V:4] D,4C,4 | 
[V:5] B,,4C,4- | 
[V:1] G2E2D4 | 
[V:2] c4z4 | 
[V:3] A2A2A2A2 | 
[V:4] E,4F,4 | 
[V:5] C,4D,4 | 
[V:1] E4F4- | 
[V:2] c4F4- | 
[V:3] A2A2A2A2 | 
[V:4] E,4D,4 | 
[V:5] C,4D,4- | 
[V:1] F2E2C4 | 
[V:2] F4A4 | 
[V:3] A2A2AAA2 | 
[V:4] F,6E,2 | 
[V:5] D,4A,,4 | 
[V:1] E8 | 
[V:2] B4c4 | 
[V:3] G4G2G2 | 
[V:4] E,4C,4 | 
[V:5] z4C,4 | 
[V:1] D4z4 | 
[V:2] z4c4 | 
[V:3] G2G2A2A2 | 
[V:4] D,4E,4- | 
[V:5] B,,4C,4- | 
[V:1] C4D4 | 
[V:2] A4B4 | 
[V:3] A2A2G2G2 | 
[V:4] E,4D,4 | 
[V:5] C,4G,,4 | 
[V:1] E6F2 | 
[V:2] c6B2 | 
[V:3] G2G2G4 | 
[V:4] C,4E,4- | 
[V:5] z8 | 
[V:1] G4E4 | 
[V:2] B4c4 | 
[V:3] G4A4 | 
[V:4] E,4A,,4 | 
[V:5] z8 | 
[V:1] z4E4 | 
[V:2] d4c4 | 
[V:3] G2F2E2A2 | 
[V:4] B,,4C,4 | 
[V:5] z8 | 
[V:1] F4E4 | 
[V:2] F4c4 | 
[V:3] A2A2A2A2 | 
[V:4] D,4C,4 | 
[V:5] z8 | 
[V:1] F8 | 
[V:2] d6c2 | 
[V:3] A2A2A4 | 
[V:4] F,8 | 
[V:5] z8 | 
[V:1] E4D4 | 
[V:2] c4B4 | 
[V:3] G2G4G2 | 
[V:4] C,4D,4 | 
[V:5] C,4G,,4 | 
[V:1] E4G4- | 
[V:2] c6BA | 
[V:3] G2G2G4 | 
[V:4] C,4E,4 | 
[V:5] C,8 | 
[V:1] G2F2D4 | 
[V:2] G8 | 
[V:3] G4G4 | 
[V:4] D,8 | 
[V:5] B,,8 | 
[V:1] C8 | 
[V:2] z4c4 | 
[V:3] A8 | 
[V:4] E,8 | 
[V:5] A,,8 | 
[V:1] D4E4- | 
[V:2] B4G4 | 
[V:3] G4E4 | 
[V:4] z8 | 
[V:5] B,,4C,4 | 
[V:1] E4D4 | 
[V:2] c4A4 | 
[V:3] A2A2A2A2 | 
[V:4] C,4F,4 | 
[V:5] A,,4D,4 | 
[V:1] z8 | 
[V:2] z2d4e2 | 
[V:3] A4A4 | 
[V:4] E,2F,4E,D, | 
[V:5] C,2D,4C,2 | 
[V:1] z8 | 
[V:2] f2d4c2 | 
[V:3] F4G2A2- | 
[V:4] C,2D,4E,2- | 
[V:5] A,,2B,,4C,2 | 
[V:1] z8 | 
[V:2] B4A4 | 
[V:3] A2G4^F2 | 
[V:4] E,2G,2D,4 | 
[V:5] G,,4z4 | 
[V:1] D4C4 | 
[V:2] B4c4- | 
[V:3] G4G2G2 | 
[V:4] z4E,4- | 
[V:5] G,,4C,4- | 
[V:1] E4G4- | 
[V:2] c2d2e4 | 
[V:3] G4G2G2 | 
[V:4] E,4C,4 | 
[V:5] C,2B,,2C,4 | 
[V:1] G2F2D4- | 
[V:2] d8 | 
[V:3] G2G4G2 | 
[V:4] D,4G,,4 | 
[V:5] B,,8 | 
[V:1] D2E2F3E | 
[V:2] B4A4 | 
[V:3] G4A2A2- | 
[V:4] z4D,3C, | 
[V:5] G,,4D,4 | 
[V:1] F2E4C2 | 
[V:2] z8 | 
[V:3] A2A2A4 | 
[V:4] D,2C,4A,,2 | 
[V:5] z8 | 
[V:1] B,4z4 | 
[V:2] z8 | 
[V:3] G4z4 | 
[V:4] E,4z4 | 
[V:5] z8 | 
[V:1] B,6C2 | 
[V:2] d8 | 
[V:3] G8 | 
[V:4] D,8- | 
[V:5] G,,8 | 
[V:1] D4E4 | 
[V:2] B4c4- | 
[V:3] G8 | 
[V:4] D,4C,4 | 
[V:5] G,,4C,4- | 
[V:1] E4D4- | 
[V:2] c2A2B4 | 
[V:3] E4F4 | 
[V:4] G,4F,4 | 
[V:5] C,4D,4 | 
[V:1] D2B,2^C4 | 
[V:2] A8- | 
[V:3] E8 | 
[V:4] z4C,4 | 
[V:5] A,,8 | 
[V:1] D4D2F2 | 
[V:2] A4B4 | 
[V:3] D4D4 | 
[V:4] F,8 | 
[V:5] z4D,4 | 
[V:1] G2A2B2c2- | 
[V:2] c4z2c2- | 
[V:3] E2F2G2A2- | 
[V:4] E,2C,2D,2E,2- | 
[V:5] C,4B,,2A,,2- | 
[V:1] c2B4A2- | 
[V:2] c2d3Bc2 | 
[V:3] A2G2A4 | 
[V:4] E,2D,2E,4 | 
[V:5] A,,2B,,2C,4 | 
[V:1] A2G2A2F2- | 
[V:2] d4c2d2- | 
[V:3] _B4A4 | 
[V:4] D,4F,4- | 
[V:5] G,,4z2D,2- | 
[V:1] F2EDC2c2- | 
[V:2] d2B2A2c2- | 
[V:3] A4A4 | 
[V:4] F,2G,2A,2F,2 | 
[V:5] D,2E,2F,4 | 
[V:1] c2B4A2- | 
[V:2] cde2f4 | 
[V:3] G4F4 | 
[V:4] C,4D,4 | 
[V:5] E,4D,4 | 
[V:1] A2G4F2- | 
[V:2] e4c4- | 
[V:3] G4A4 | 
[V:4] E,4A,,2A,2- | 
[V:5] C,4F,,4 | 
[V:1] F2E4D2 | 
[V:2] c4A4 | 
[V:3] E4F4 | 
[V:4] A,2G,2F,2D,2 | 
[V:5] C,4D,4 | 
[V:1] E8- | 
[V:2] c8- | 
[V:3] E8- | 
[V:4] A,8- | 
[V:5] A,,8 | 
[V:1] E8- | 
[V:2] c4B4 | 
[V:3] E8- | 
[V:4] A,4G,4 | 
[V:5] A,,8 | 
[V:1] E8 |]  
[V:2] B8 |]  
[V:3] E8 |]  
[V:4] G,8 |]  
[V:5] E,,8 |]  



